X:28
%%score 1 2
%%pagewidth 800pt
T:Robin, lend to me thy bow
M:C
L:1/4
K:D
V:1 clef-treble
V:2 clef-bass octave=-1
V:1
DE/F/GF & x2B,2|EEDd & C3D|cBAF & D3D|[DG][CA][DF]>D|
w:Now Ro-bin, lend to me thy bow, Sweet Ro-bin lend to me thy bow, For
V:2
[DF]2G,2|A,2B,B|AGFD|EA,D2|
V:1
G/A/B/c/dA & B,GD2|c/B/A/G/FA  & DCDD|[DB][Ge][Fd][Ec]|[Fd]4||
w:I must now a hunt-ing with my la-dy go, With my sweet la-dy go.
V:2
E2F2|GABF|GEAA,|D4||

